X:1
T:Why weeps, alas, my lady? - Morley
T:#
%%score [ 1 2 { 3 | 4 } 5 ]
L:1/8
Q:1/4=108
M:4/4
K:F
V:1 treble nm="Soprano" snm="S"
V:2 treble nm="Alto" snm="A"
V:3 treble-8 nm="Tenor I" snm="T"
V:4 treble-8 
V:5 bass nm="Bass" snm="B"
V:1
 z8 |"^Why weeps, alas, my lady?" z4 d4 | d3 e f4 | z4 d2 d"^Thomas Morley\n(1557-1603)"d | %4
w: |Why|weeps, a- las,|my la- dy|
[M:4/4] _e2 d2 d4 | =B8 | z4 z2 d2 | d3 e f4 | z4 d2 dd | _e2 d2 d4 | =B4 z4 |: z8 | z8 | z4 f4- | %14
w: love and mis-|tress?|Why|weeps, a- las,|my la- dy|love and mis-|tress?|||Sweet-|
 f4 _e2 d2 | (c2 B2 c4) | d4 z2 d2 | d3 d c2 c2 | c4 c4 | z2 c2 c2 f2 | _ed (d4 c2) | d8 | z8 | %23
w: * heart, O|fear * *|not, what|though a- while I|leave thee?|what though a-|while I leave *|thee?||
 z8 | z8 | z2 d2 d2 d2 | f4 z2 d2 | c3 d B2 (c2- | c2 B2) A4 | =B4 z4 | z2 d2 d2 d2 | f4 d4 ||1 %32
w: ||My life may|fail, but|I will not de\-|* * ceive|thee,|my life may|fail, but|
 c3 d _e2 e2 || d8 | =B4 z4 :|2 c3 d _e2 e2 || d8- | d8 | !fermata!=B8 |] %39
w: I will not de-|ceive|thee.|I will not de-|ceive||thee|
V:2
 z4 G4 | G3 A B4 | z2 B2 B3 c | d4 B2 BB |[M:4/4] G2 G2 ^F4 | G4 z2 G2 | G3 A B4 | z2 B2 B3 c | %8
w: Why|weeps, a- las,|why weeps, a-|las, my la- dy|love and mis-|tress? Why|weeps, a- las,|why weeps, a-|
 d4 B2 BB | G2 G2 ^F4 | G4 z4 |: z8 | z8 | z4 d4- | d4 c2 B2 | (A2 B4 A2) | B4 z2 B2 | B3 B A2 A2 | %18
w: las, my la- dy|love and mis-|tress?|||Sweet-|* heart, O|fear * *|not, what|though a- while I|
 G4 A2 A2 | A6 A2 | B2 A2 G4 | ^F2 A2 A2 A2 | B3 A G2 B2 | A4 F4 | F8 | F2 F2 F2 B2 | A6 B2 | %27
w: leave thee? what|though a-|while I leave|thee? My life may|fail, but I will|not de-|ceive|thee, My life may|fail, but|
 A3 B G2 A2 | (^F2 G4 F2) | G8 | z8 | z2 F2 F2 B2 ||1 A3 B A2 G2 || ^F2 G2 (G2 F2) | G8 :|2 %35
w: I will not de-|ceive * *|thee,||my life may|fail, but I will|not de- ceive *|thee.|
 A3 B A2 G2 || ^F2 F2 (G4- | G2 ^FE F4) | !fermata!G8 |] %39
w: fail, but I will|not~de\-ceive * *||thee.|
V:3
 G4 G3 A | B4 B2 d2- | de f4 z2 | z2 F2 F2 F2 |[M:4/4][K:treble-8] c2 d2 d4 | d8 | z8 | %7
w: Why weeps, a-|las, Why weeps,|* a- las,|my la- dy|love and mis-|tress?||
 z2 d2 d3 e | f4 d2 dd | c2 B2 A4 | G4 z4 |: z4 f4- | f4 _e2 d2 | c4 d4 | f4 g4 | c2 f6 | %16
w: Why weeps, a-|las, my la- dy|love and mis-|tress?|Sweet\-|* heart, O|fear not,|sweet- heart,|O fear|
 f4 z2 f2 | f3 g e2 f2 | e4 f4 | z2 c2 c2 d2 | B2 f2 (B2 G2) | A8 | z2 G2 d3 e | f2 d2 A2 d2 | %24
w: not, what|though a- while I|leave thee?|what though a-|while I leave *|thee?|My life may|fail, but I will|
 c2 B2 (B2 A2) | B4 z2 d2 | d2 d2 f2 B2 | f3 d _e2 c2 | d8 | G8 | z4 z2 B2 | B2 B2 F3 G ||1 %32
w: not de- ceive *|thee, My|life may fail, but|I will not de-|ceive|thee,|My|life may fail, but|
 A2 F2 c4- || c2 B2 A4 | G8 :|2 A2 F2 c4- || c4 B4 | A8 | !fermata!G8 |] %39
w: I will not|* de- ceive|thee.|I will not|* de-|ceive|thee.|
V:4
 z8 | z8 | z2 d2 d3 e | f4 d2 dd |[M:4/4][K:treble-8] c2 B2 A4 | G2 G2 G3 A | B4 B2 d2- | %7
w: ||Why weeps, a-|las, my la- dy|love and mis-|tress? why weeps, a-|las, why weeps,|
 de f4 z2 | z2 F2 F2 F2 | c2 d2 d4 | d4 d4- |: d4 c2 B2 | (A4 B4) | A4 B4- | B4 G4 | A2 (d2 c4) | %16
w: * a- las,|my la- dy|love and mis-|tress? Sweet-|* heart, O|fear *|not, sweet\-|* heart,|O fear *|
 B4 z2 B2 | B3 G A2 F2 | c4 F4 | f2 f4 f2 | g2 d2 G4 | d2 ^f2 f2 f2 | g4 G4 | A2 B2 c2 (B2 | %24
w: not, what|though a- while I|leave thee?|what though a-|while I leave|thee? My life may|fail, but|I will not de\-|
 A2 B2) c4 | d8 | z8 | z8 | z8 | z4 z2 d2 | d2 d2 f3 e | d4 B4 ||1 c4 z2 G2 || d8 | d4 (d4 :|2 %35
w: * * ceive|thee,||||my|life may fail, but|I will|not de-|ceive|thee. Sweet|
 (c6 B2) || A4) G4 | d8 | !fermata!d8 |] %39
w: not *|* de-|ceive|thee.|
V:5
 z8 | G,4 G,3 A, | B,8 | B,,4 B,,2 B,,2 |[M:4/4] C,2 G,,2 D,4 | G,,8 | z2 G,2 G,3 A, | B,8 | %8
w: |Why weeps, a-|las,|my la- dy|love and mis-|tress?|why weeps a-|las,|
 B,,4 B,,2 B,,2 | C,2 G,,2 D,4 | G,,4 B,4- |: B,4 A,2 G,2 | F,8 | F,4 B,,4 | D,4 _E,4 | F,8 | %16
w: my la- dy|love and mis-|tress? Sweet-|* heart, O|fear|not, sweet-|heart, O|fear|
 B,,8 | z8 | z4 z2 F,2 | F,6 D,2 | G,2 F,2 _E,4 | D,2 D,2 D,2 D,2 | G,3 A, B,2 G,2 | F,4 F,4 | %24
w: not,||what|though a-|while I leave|thee? My life may|fail, but I will|not de-|
 F,8 | B,,8 | z8 | z8 | z8 | z2 G,2 G,2 G,2 | B,6 B,,2 | B,,4 B,,4 ||1 F,4 C,4 || D,8 | %34
w: ceive|thee,||||my life may|fail, but|I will|not de-|ceive|
 G,,4 (B,4 :|2 F,4 C,4) || D,8- | D,8 | !fermata!G,8 |] %39
w: thee. Sweet|not de-|ceive||thee|

